Suru++-Ubuntu/status/24/aptdaemon-cleanup.svg

<svg viewBox="0 0 24 24" xmlns="http://www.w3.org/2000/svg">
 <defs>
  <style type="text/css">.ColorScheme-Text {
        color:#4d4d4d;
      }</style>
 </defs>
 <path class="ColorScheme-Text" d="m12 4c-0.675205 0.00379-1.347214 0.093036-2 0.265625v1.0332031 0.0117188a7 7 0 0 0-1.3164062 0.5449219l-0.7402344-0.7402344c-1.1669557 0.68805-2.1400752 1.6611695-2.828125 2.828125l0.7402344 0.7402344a7 7 0 0 0-0.546875 1.3164062h-0.0136719-1.0351563c-0.1706115 0.653039-0.2578936 1.325045-0.2597656 2 0.00378 0.675205 0.093036 1.347214 0.265625 2h1.0332031 0.0117188a7 7 0 0 0 0.5449219 1.316406l-0.21875 0.21875-0.5214844 0.521485c0.6880498 1.166955 1.6611693 2.140075 2.828125 2.828125l0.5214844-0.521485 0.21875-0.21875a7 7 0 0 0 1.3164062 0.546875v0.308594 0.740234c0.653039 0.170612 1.325044 0.257894 2 0.259766 0.334998-0.0019 0.668533-0.026623 1-0.070312v-1.00586c-0.330445 0.04881-0.665094 0.075042-1 0.076172-0.335454-5.02e-4 -0.668936-0.025869-1-0.074219v-0.003906-0.921875-0.089844a6 6 0 0 1-2.4726562-1.023437l-0.0625 0.0625-0.6503907 0.65039-0.0039062 0.003907c-0.5363047-0.402055-1.011434-0.878676-1.4121094-1.416016l0.0019531-0.001953 0.6503906-0.650391 0.0644532-0.064453a6 6 0 0 1-1.0292969-2.470703h-0.0859375-0.9199219-0.0039062c-0.0488097-0.330445-0.0750443-0.665094-0.0761719-1 5.022e-4 -0.335454 0.0258707-0.668936 0.0742188-1h0.0039062 0.921875 0.0898438a6 6 0 0 1 1.0234374-2.4726562l-0.0625-0.0625-0.6503906-0.6503907-0.0039062-0.0039062c0.4020656-0.5363047 0.878676-1.011434 1.4160156-1.4121094l0.0019531 0.0019531 0.6503907 0.6503906 0.0644531 0.0644532a6 6 0 0 1 2.4707031-1.0292969v-0.0859375-0.9199219-0.0039062c0.330445-0.0488097 0.665094-0.0750443 1-0.0761719 0.335454 5.001e-4 0.668936 0.0258697 1 0.0742188v0.0039062 0.921875 0.0898438a6 6 0 0 1 2.472656 1.0234374l0.0625-0.0625 0.650391-0.6503906 0.003906-0.0039062c0.536309 0.4020618 1.011435 0.878676 1.412109 1.4160156l-0.001953 0.0019531-0.65039 0.6503907-0.064453 0.0644531a6 6 0 0 1 1.029296 2.4707031h0.085938 0.919922 0.003906c0.04881 0.330445 0.075042 0.665094 0.076172 1-4.95e-4 0.335454-0.025869 0.668936-0.074219 1h-0.003906-0.921875-0.089844a6 6 0 0 1-0.730468 2h1.134765a7 7 0 0 0 0.376953-1h0.308594 0.740234c0.170612-0.653039 0.257894-1.325044 0.259766-2-0.0038-0.675205-0.09304-1.347214-0.265625-2h-0.734375-0.310547a7 7 0 0 0-0.544922-1.3164062l0.007813-0.0078126 0.732422-0.7324218c-0.688037-1.1669581-1.661169-2.140075-2.828125-2.828125l-0.728516 0.7285156-0.011719 0.0117188a7 7 0 0 0-1.316406-0.546875v-0.0136719-1.0351563c-0.653039-0.1706114-1.325044-0.2578935-2-0.2597656zm-2 5v6l5-3-5-3zm6 7-2 2 2 2h4v-4h-4zm0.599609 1h2.400391v2h-2.400391l-1-1 1-1z" style="fill:currentColor"/>
</svg>

<svg xmlns="http://www.w3.org/2000/svg" viewBox="0 0 24 24">
  <defs id="defs3051">
    <style type="text/css" id="current-color-scheme">
      .ColorScheme-Text {
        color:#4d4d4d;
      }
      </style>
  </defs>
 <path style="fill:currentColor;fill-opacity:1;stroke:none" 
     d="M 12 4 C 11.324795 4.00379 10.652786 4.093036 10 4.265625 L 10 5.2988281 L 10 5.3105469 A 7 7 0 0 0 8.6835938 5.8554688 L 8.6757812 5.8476562 L 7.9433594 5.1152344 C 6.7764037 5.8032844 5.8032842 6.7764039 5.1152344 7.9433594 L 5.6367188 8.4648438 L 5.8554688 8.6835938 A 7 7 0 0 0 5.3085938 10 L 5.2949219 10 L 4.2597656 10 C 4.0891541 10.653039 4.001872 11.325045 4 12 C 4.00378 12.675205 4.093036 13.347214 4.265625 14 L 5.2988281 14 L 5.3105469 14 A 7 7 0 0 0 5.8554688 15.316406 L 5.6367188 15.535156 L 5.1152344 16.056641 C 5.8032842 17.223596 6.7764037 18.196716 7.9433594 18.884766 L 8.4648438 18.363281 L 8.6835938 18.144531 A 7 7 0 0 0 10 18.691406 L 10 19 L 10 19.740234 C 10.653039 19.910846 11.325044 19.998128 12 20 C 12.334998 19.9981 12.668533 19.973377 13 19.929688 L 13 18.923828 C 12.669555 18.972638 12.334906 18.99887 12 19 C 11.664546 18.999498 11.331064 18.974131 11 18.925781 L 11 18.921875 L 11 18 L 11 17.910156 A 6 6 0 0 1 8.5273438 16.886719 L 8.4648438 16.949219 L 7.8144531 17.599609 L 7.8105469 17.603516 C 7.2742422 17.201461 6.7991129 16.72484 6.3984375 16.1875 L 6.4003906 16.185547 L 7.0507812 15.535156 L 7.1152344 15.470703 A 6 6 0 0 1 6.0859375 13 L 6 13 L 5.0800781 13 L 5.0761719 13 C 5.0273622 12.669555 5.0011276 12.334906 5 12 C 5.0005022 11.664546 5.0258707 11.331064 5.0742188 11 L 5.078125 11 L 6 11 L 6.0898438 11 A 6 6 0 0 1 7.1132812 8.5273438 L 7.0507812 8.4648438 L 6.4003906 7.8144531 L 6.3964844 7.8105469 C 6.79855 7.2742422 7.2751604 6.7991129 7.8125 6.3984375 L 7.8144531 6.4003906 L 8.4648438 7.0507812 L 8.5292969 7.1152344 A 6 6 0 0 1 11 6.0859375 L 11 6 L 11 5.0800781 L 11 5.0761719 C 11.330445 5.0273622 11.665094 5.0011276 12 5 C 12.335454 5.0005001 12.668936 5.0258697 13 5.0742188 L 13 5.078125 L 13 6 L 13 6.0898438 A 6 6 0 0 1 15.472656 7.1132812 L 15.535156 7.0507812 L 16.185547 6.4003906 L 16.189453 6.3964844 C 16.725762 6.7985462 17.200888 7.2751604 17.601562 7.8125 L 17.599609 7.8144531 L 16.949219 8.4648438 L 16.884766 8.5292969 A 6 6 0 0 1 17.914062 11 L 18 11 L 18.919922 11 L 18.923828 11 C 18.972638 11.330445 18.99887 11.665094 19 12 C 18.999505 12.335454 18.974131 12.668936 18.925781 13 L 18.921875 13 L 18 13 L 17.910156 13 A 6 6 0 0 1 17.179688 15 L 18.314453 15 A 7 7 0 0 0 18.691406 14 L 19 14 L 19.740234 14 C 19.910846 13.346961 19.998128 12.674956 20 12 C 19.9962 11.324795 19.90696 10.652786 19.734375 10 L 19 10 L 18.689453 10 A 7 7 0 0 0 18.144531 8.6835938 L 18.152344 8.6757812 L 18.884766 7.9433594 C 18.196729 6.7764013 17.223597 5.8032844 16.056641 5.1152344 L 15.328125 5.84375 L 15.316406 5.8554688 A 7 7 0 0 0 14 5.3085938 L 14 5.2949219 L 14 4.2597656 C 13.346961 4.0891542 12.674956 4.0018721 12 4 z M 10 9 L 10 15 L 15 12 L 10 9 z M 16 16 L 14 18 L 16 20 L 20 20 L 20 16 L 16 16 z M 16.599609 17 L 19 17 L 19 19 L 16.599609 19 L 15.599609 18 L 16.599609 17 z "
     class="ColorScheme-Text"
     />
</svg>
